X:1
T:O numeri d'amore
T:O numeri d'amore
T:Marc'Antonio Tornioli
T:Source : Canzonette spirituali a tre voci---Libro Primo---Venetia---Ang.Gardano---1607. Editor : André Vierendeels (19/06/16).
T:Notes : Original clefs : C1, C1, F4 Text by Angelo Grillo (Pietosi affetti)
T:©
T:©
T:©
C:Marc'Antonio Tornioli
Z:©
%%score [ 1 2 3 ]
L:1/8
Q:1/4=84
M:4/4
K:F
V:1 treble nm="Soprano 1" snm="S 1"
V:2 treble nm="Soprano 2" snm="S 2"
V:3 bass nm="Bass" snm="B"
V:1
 z2 B2 B2 A2 | d2 d2 c4 | B2 d2 c2 B2 | A2 d4 ^c2 | d2 d2 A2 B2 | G4 A2 c2 | A2 E2 D4- | %7
w: O Nu- me-|ri d'a- mo-|re, mi- su- re|di do- lo-|re, Gie- su fe-|ri- to, fe-|ri- to lan-|
 D2 ^C2 D2 A2 | G2 A2 B2 c2 | d6 cB | A2 B3 A G2 | G2 FE D4 |1[M:2/4] E4 ::2 z4 || %14
w: * * gue, e'il|lat- te di Ma-|ri- * *|a ver- sa nel|san- * * *|gue.||
[M:4/4] z4 B2 B2 | B4 B2 c2 | B4 A2 c2 | d2 c2 B2 A2 | G4 c3 B | A2 d4 G2 | c8 | B4 d2 dd | d4 A4 | %23
w: E Ma-|ria pian- ge'in|tan- to'e il|san- gue di Gie-|su ver- sa|nel pian- *||to, quan- do ma-|te- ria|
 c4 d4 | B4 A4 | A6 G2 | z2 B2 A3 A | G3 G B2 B2 | A4 B2 c2- | c2 B2 A4 | G8 :| %31
w: piu do-|len- t'e|pi- a,|heb- be gia|mai l'an- ge- li-|c'ar- mo- ni-||a.|
V:2
 G4 G2 c2 | B2 B4 A2 | B2 F2 F2 G2 | c2 A2 G4 | ^F8 | z2 B2 ^F2 G2 | ^F^G A4 G2 | A4 F4 | %8
w: O Nu- me-|ri d'a- mo-|re, mi- su- re|di do- lo-|re,|Gie- su fe-|ri- to lan- *|gue, e'il|
 E2 F2 G2 A2 | B6 AG | ^F2 z2 d3 c | =B2 c3 B/A/ B2 |1[M:2/4] c4 ::2 G2 G2 ||[M:4/4] G8- | %15
w: lat- te di Ma-|ri- * *|a ver- sa|nel san- * * *|gue.|E Ma-|ri|
 G4 F2 E2 | D2 E2 F2 A2 | B2 A2 G2 F2 | E8 | c3 B A2 B2- | B2 AG A4 | B8 | F2 FF C2 C2 | G4 A4 | %24
w: _ a pian-|ge'in tan- to'e il|san- gue di Gie-|su|ver- sa nel pian-||to,|quan- do ma- te- ria|piu do-|
 D2 E2 F2 C2 | F6 E2 | F2 d3 d c2- | cc B3 B d2- | d2 c2 B2 AG | ^F2 G4 F2 | G8 :| %31
w: len- t'e pi- *|* a,|heb- be gia mai|_ l'an- ge- li- c'ar-|* mo- ni- * *||a.|
V:3
 z2 G,2 G,2 F,2 | B,2 D,2 F,4 | B,,2 B,2 A,2 G,2 | F,2 F,2 E,4 | D,8 | z2 G,2 D,2 E,2 | %6
w: O Nu- me-|ri d'a- mo-|re, mi- su- re|di do- lo-|re,|Gie- su fe-|
 D,2 C,2 =B,,4 | A,,4 D,4 | z4 G,4 | G,,2 A,,2 B,,2 C,2 | D,2 G,3 F, E,2 | G,8 |1[M:2/4] C,4 ::2 %13
w: ri- to lan-|* gue,|e'il|lat- te di Ma-|ria ver- sa nel|san-|gue.|
 z4 ||[M:4/4] z4 G,2 G,2 | G,4 D,2 C,2 | G,4 F,4 | z4 G,4 | C2 B,2 A,2 G,2 | F,2 G,3 F, _E,2 | %20
w: |E Ma-|ria pian- ge'in|tan- to,|e'il|san- gue di Gie-|su ver- sa nel|
 F,8 | B,,8 | B,,2 B,,B,, F,2 F,2 | E,4 ^F,4 | G,4 F,4 | D,4 C,4 | D,4 F,3 F, | _E,3 E, G,4 | %28
w: pian-|to,|quan- do ma- te- ria|piu do-|len- t'e|pi- a,|heb- be gia|mai l'an- ge-|
 ^F,4 G,2 _E,2 | D,8 | G,,8 :| %31
w: li- c'ar- mo-|ni-|a.|

